X: 1
T:Hope Thou Nurse. WCl.68
M:3/4
L:1/4
Q:100
S:William Clarke MS,Lincoln,1770.
R:Air
O:Lincoln
A:England
Z:vmp.Barry Callaghan
K:D
d2e|(f>g)a|gfe|e2z|e2e|f2e|(fa)^g|a2:||!
b2a|g2f |(e3/4f/4g/f/)(e/d/)|(dc)z|d2e|(f>g)a|(gf)~e|d3:||
